X:24
T:Édesanyám rózsafája
Q: "Rubato" 1/4=72
O: (Csík)
M:4/4
L:1/4
K:F
A>G A/A/ | A/G/ A G2 | 
c/c/d/ d3/2 | d/c/ G A2 z |
d3/2 c/c/c/ | c/A/G/ F3/2 |
c3/2 B/A/G/ | A/G/ D2 D z |

